X:90
T:The Galloway horne Pipe
S:The Balcarres Lute Book c. 1695-1701
S:"pete stewart" <pete@wintonpottery.co.uk> tradtunes 2011-10-11
M:4/4
L:1/8
K:F
CD \
| F3f cdcA | G2B2 B2CD | F3f cdcA | FGAB cdcA \
| Bcdg fdcA | G2B2 B2CD | F3f cdcA | F2A2 TA2 ||
(de) \
| f2c2 (fd)(cA) | G2B2 B2(de) | f2c2 fgag | fcdf ABcA \
| Bcdg fdcA | G2B2 B2CD | F3f cdcA | F2A2 TA2 ||
CD \
| FEFf cdAc | GFGA BABD | FDfd cBAc | FGAB cBcA \
| Bcdg fdfA | BgAd GABD | FfTed cBAG | F2A2 A2 ||
(ag) \
| fefc fdcA | BGcB AFde | fefc fgag | fdcf ABcA \
| Bcdg fdfA | Bgfd cABD | Ffcd cBAG | F2A2 TA2 ||
CD \
| FDfd cGAF | BGcB A2(d2 | d)fcd cBcA | BAGc AFcA \
| Bcdg fdfA | gBAc GABD | Ffcd cBAG | F2A2TA2 |]
